X: 1
T: Miss Sarah MacManus
M: 4/4
L: 1/8
R: reel
K: Amaj
|:AB|ce (3eee ecAB|ce (3eee ecAB|df (3fff fgaf|dfae (3cde ae|
ce (3eee ecAB|ce (3eee ecAB|defg {a}gfed|cABG A2:|
|:cd|ec (3ccc ac (3ccc|acbc c'c (3ccc|dB (3BBB fB (3BBB|bBaB gecd|
ec (3ccc ac (3ccc|acbc c'c (3ccc|defg {a}gfed|cABG A2:|
